X: 24474
T: Lucozade, The
R: reel
M: 4/4
K: Eminor
|:E3F G3A|B2e^c dBA=c|BEED EFGA|BFAF GFED|
E3F G3A|B2e^c dBA=c|BEED EFGA|1 BFAF E2D2:|2 BFAF E2A2||
|:BABd e2ef|gfed edBA|BABd e2B2|ABAG FED2|
~E3B ~E3B|Bee^c dBA=c|BEED EFGA|1 BFAF E2A2:|2 BFAF E2D2||

